X:1
T:The Hackler from Grouse Hall
M:6/8
L:1/4
K:C
 A/2| D D/2 F G/2| A d/2 d e/2| d c/2 A G/2| A3/2- A A/2| D E/2 F G/2|\
 A A/2 G A/2| F D/2 C C/2| C3/2- C C/2| D D/2 F G/2| A A/2 G G/2| A d/2 d e/2|\
 d3/2- d d/4e/4| f e/2 d c/2| A A/2 A A/2| G/2 F D D/2| D- D3/2||
